X:1587
T:Michaelmas Song
C:trad. Engeland
O:Ireland
M:3/4
L:1/8
Q:1/4=120
K:Gm
V:1
z4 D2 |G3 AB G|A3/2 A/d3 c|B2 G2 G2 |
F2 D2 D2 |G3 AB G|A2 d3 c|B2 G2 A2 |
G4 A2 |B3 cd B|A2 F2 D2 |E3 GF E|
D4 F2 |B3 cd B|A2 F2 D2 |ED CB AG |
G4 |]
V:2          %Alt
z2 z2 D2 |B,4 D2 |F3/2 F/F2 F2 |D2 B,2 D2 |
D2 A,2 D2 |D2 D2 B,D |F2 F3 F|E2 E2 ^F2 |
D4 E2 |F3 FF F|F2 C2 B,2 |C4 C2 |
B,4 D2 |G3 AB G|F2 D2 B,2 |C2 C2 C2 |
D4 |]
